X: 41204
T: Troll In The Mustard
R: jig
M: 6/8
K: Eminor
~B3 dBA|BAG ~E3|D2E FAB|~d3 fed|
~B3 dBA|BAG ~E3|DEF ABF|1 ADF ~E3:|2 ABd ~e3||
e2 f gfe|~f3 baf|efg fed|~B3 ABd|
e2 f gfe|~f3 baf|def abf|adf ~e3|
e2 f gfe|~f3 baf|efg fed|~B3 ABd|
e2 f gfe|~f3 edB|ABd BAF|ADF ~E3||

